X:1
T: Hills and Dales of Wales
N:
C:
S:
A:
O:
R:
M:4/4
K:C
I:speed 200
%W: A1
% voice 1 (1 lines, 38 notes)
K:C
M:4/4
L:1/16
d4 |g4 e2 f2 g6 a2 |g4 f4 e8 |c2 d2 e2 f2 g4 f2 e2 |d6 c2 c8 |e4 g4 d4 g4 |c2 e2 g4 B2 d2 g4 |e4 a4 ^f4 g2 c2 |A6 G2 G4 d4 |
%W: A2
% voice 1 (1 lines, 37 notes)
g4 e2 f2 g6 a2 |g4 f4 e8 |c2 d2 e2 f2 g4 f2 e2 |d6 c2 c8 |e4 g4 d4 g4 |c2 e2 g4 B2 d2 g4 |e4 a4 ^f4 g2 c2 |A6 G2 G4 B4 |
%W: B1
% voice 1 (1 lines, 44 notes)
d4 B2 c2 d6 e2 |f2 a2 g2 f2 f4 e4 |e4 a2 a2 ^g2 e2 a2 B2 |B6 A2 A8 |G2 c2 c4 G2 d2 d4 |e2 c2 d2 e2 f4 e4 |a2 f2 d4 g2 B2 c2 d2 |d6 c2 c4 B4 |
%W: B2
% voice 1 (1 lines, 43 notes)
d4 B2 c2 d6 e2 |f2 a2 g2 f2 f4 e4 |e4 a2 a2 ^g2 e2 a2 B2 |B6 A2 A8 |G2 c2 c4 G2 d2 d4 |e2 c2 d2 e2 f4 e4 |a2 f2 d4 g2 B2 c2 d2 |d6 c2 c4 ||
